gama.extension.image/models/Images/includes/emoji/emoji_u1fae9.svg

<svg xmlns="http://www.w3.org/2000/svg" xmlns:xlink="http://www.w3.org/1999/xlink" xml:space="preserve" viewBox="0 0 128 128"><radialGradient id="a" cx="63.22" cy="-86.9" r="56.96" gradientTransform="matrix(1 0 0 -1 0 -24)" gradientUnits="userSpaceOnUse"><stop offset=".5" style="stop-color:#fde030"/><stop offset=".92" style="stop-color:#f7c02b"/><stop offset="1" style="stop-color:#f4a223"/></radialGradient><path d="M63.22 118.8c-27.9 0-58-17.5-58-55.9S35.32 7 63.22 7c15.5 0 29.8 5.1 40.4 14.4 11.5 10.2 17.6 24.6 17.6 41.5s-6.1 31.2-17.6 41.4c-10.62 9.3-25 14.5-40.4 14.5" style="fill:url(#a)"/><path d="M111.28 29.89c5.33 8.6 8.32 18.62 8.32 30.01 0 16.9-6.1 31.2-17.6 41.4-10.6 9.3-25 14.5-40.4 14.5-18.06 0-37-7.35-48.18-22.94 10.76 17.66 31 25.94 50.18 25.94 15.4 0 29.8-5.2 40.4-14.5 11.5-10.2 17.6-24.5 17.6-41.4 0-12.74-3.68-23.84-10.32-33.01" style="fill:#eb8f00"/><path d="M82.4 100.1c-4.4.3-32.3 1.3-35.1.8-3.8-.7-3.5-5.9.3-6.4 1.8-.2 12.5-1.2 17.6-1.2s8.3.5 10.3.8c1.8.3 6.2 1.5 7.2 1.7 2.1.6 2.1 4.1-.3 4.3m18-59.9C99 39.3 89 35.7 77 38.4c-3.2.7-2.1 5.1.8 4.5 10.4-2.2 18.8.3 21.2.7s2.8-2.5 1.4-3.4" style="fill:#422b0d"/><path d="M98.5 64.2c4.5-1.9 6.6 2.2 5.7 5.8-2.3 8.9-22.6 16.7-32.2.7-2.8-4.6 2.3-7.4 5.2-5.3 7.7 5.6 16.7.7 21.3-1.2m-68.7 1c-2.2-2.2-6.6 0-5.9 3.6 2.8 13.9 27.4 15.9 32.1 1.4 1.2-3.9-2.1-6.4-5.7-4.4-8.8 4.9-15.6 4.1-20.5-.6" style="fill:#eb8f00"/><path d="M72.9 54.8c6.1-.2 20.7.3 26.9.8 2.2.2 2.4 2.1 2.2 3.4-2.7 15.8-29.5 18.7-31.4-1.2-.2-2.7 1.2-3 2.3-3m-45.3 2c-1.7.3-2.4 2-2 3.7 3.7 15.6 30.3 15.4 31.5-3 0-1.7-.6-3.1-2.7-3.1-4.6 0-20.3 1.4-26.8 2.4" style="fill:#fff"/><defs><path id="b" d="M72.9 54.8c6.1-.2 20.7.3 26.9.8 2.2.2 2.4 2.1 2.2 3.4-2.7 15.8-29.5 18.7-31.4-1.2-.2-2.7 1.2-3 2.3-3m-45.3 2c-1.7.3-2.4 2-2 3.7 3.7 15.6 30.3 15.4 31.5-3 0-1.7-.6-3.1-2.7-3.1-4.6 0-20.3 1.4-26.8 2.4"/></defs><clipPath id="c"><use xlink:href="#b" style="overflow:visible"/></clipPath><g style="clip-path:url(#c)"><path d="M92.3 54.4c2.7 4.5-.4 10.4-6.2 10.4s-8.9-5.4-5.3-10.8c2.2-3.4 9-3.8 11.5.4m-56.6.4c-2.9 4.9.9 10.1 5.6 10.1s8.2-6.2 5.3-10.4c-2.3-3.3-8.8-3.3-10.9.3" style="fill:#422b0d"/></g><defs><path id="d" d="M72.9 54.8c6.1-.2 20.7.3 26.9.8 2.2.2 2.4 2.1 2.2 3.4-2.7 15.8-29.5 18.7-31.4-1.2-.2-2.7 1.2-3 2.3-3m-45.3 2c-1.7.3-2.4 2-2 3.7 3.7 15.6 30.3 15.4 31.5-3 0-1.7-.6-3.1-2.7-3.1-4.6 0-20.3 1.4-26.8 2.4"/></defs><clipPath id="e"><use xlink:href="#d" style="overflow:visible"/></clipPath><g style="clip-path:url(#e)"><path d="M41.5 56.1c0 1.3-1.1 2.4-2.5 2.4s-2.5-1.1-2.5-2.4 1.1-2.4 2.5-2.4 2.5 1.1 2.5 2.4m42.3-2.7c-1.4 0-2.5 1.1-2.5 2.5s1.1 2.5 2.5 2.5 2.5-1.1 2.5-2.5-1.1-2.5-2.5-2.5" style="fill:#896024"/></g><path d="M53.18 36.85c-1.48-.76-11.79-3.34-23.46.55-3.11 1.02-1.58 5.28 1.25 4.4 10.13-3.23 18.74-1.58 21.16-1.43s2.54-2.77 1.05-3.52" style="fill:#422b0d"/></svg>

<?xml version="1.0" encoding="utf-8"?>
<!-- Generator: Adobe Illustrator 26.3.1, SVG Export Plug-In . SVG Version: 6.00 Build 0)  -->
<svg version="1.1" id="BAGS_UNDER_EYES" xmlns="http://www.w3.org/2000/svg" xmlns:xlink="http://www.w3.org/1999/xlink" x="0px"
	 y="0px" viewBox="0 0 128 128" style="enable-background:new 0 0 128 128;" xml:space="preserve">
<radialGradient id="face_00000088816004770144277250000009556130401377754250_" cx="63.22" cy="-86.9" r="56.9597" gradientTransform="matrix(1 0 0 -1 0 -24)" gradientUnits="userSpaceOnUse">
	<stop  offset="0.5" style="stop-color:#FDE030"/>
	<stop  offset="0.92" style="stop-color:#F7C02B"/>
	<stop  offset="1" style="stop-color:#F4A223"/>
</radialGradient>
<path id="face" style="fill:url(#face_00000088816004770144277250000009556130401377754250_);" d="M63.22,118.8
	c-27.9,0-58-17.5-58-55.9S35.32,7,63.22,7c15.5,0,29.8,5.1,40.4,14.4c11.5,10.2,17.6,24.6,17.6,41.5s-6.1,31.2-17.6,41.4
	C93,113.6,78.62,118.8,63.22,118.8z"/>
<path style="fill:#EB8F00;" d="M111.28,29.89c5.33,8.6,8.32,18.62,8.32,30.01c0,16.9-6.1,31.2-17.6,41.4
	c-10.6,9.3-25,14.5-40.4,14.5c-18.06,0-37-7.35-48.18-22.94c10.76,17.66,31,25.94,50.18,25.94c15.4,0,29.8-5.2,40.4-14.5
	c11.5-10.2,17.6-24.5,17.6-41.4C121.6,50.16,117.92,39.06,111.28,29.89z"/>
<path style="fill:#422B0D;" d="M82.4,100.1c-4.4,0.3-32.3,1.3-35.1,0.8c-3.8-0.7-3.5-5.9,0.3-6.4c1.8-0.2,12.5-1.2,17.6-1.2
	s8.3,0.5,10.3,0.8c1.8,0.3,6.2,1.5,7.2,1.7C84.8,96.4,84.8,99.9,82.4,100.1z M100.4,40.2C99,39.3,89,35.7,77,38.4
	c-3.2,0.7-2.1,5.1,0.8,4.5c10.4-2.2,18.8,0.3,21.2,0.7S101.8,41.1,100.4,40.2z"/>
<path style="fill:#EB8F00;" d="M98.5,64.2c4.5-1.9,6.6,2.2,5.7,5.8c-2.3,8.9-22.6,16.7-32.2,0.7c-2.8-4.6,2.3-7.4,5.2-5.3
	C84.9,71,93.9,66.1,98.5,64.2z M29.8,65.2c-2.2-2.2-6.6,0-5.9,3.6c2.8,13.9,27.4,15.9,32.1,1.4c1.2-3.9-2.1-6.4-5.7-4.4
	C41.5,70.7,34.7,69.9,29.8,65.2z"/>
<path style="fill:#FFFFFF;" d="M72.9,54.8c6.1-0.2,20.7,0.3,26.9,0.8c2.2,0.2,2.4,2.1,2.2,3.4c-2.7,15.8-29.5,18.7-31.4-1.2
	C70.4,55.1,71.8,54.8,72.9,54.8z M27.6,56.8c-1.7,0.3-2.4,2-2,3.7c3.7,15.6,30.3,15.4,31.5-3c0-1.7-0.6-3.1-2.7-3.1
	C49.8,54.4,34.1,55.8,27.6,56.8z"/>
<g>
	<g>
		<defs>
			<path id="SVGID_1_" d="M72.9,54.8c6.1-0.2,20.7,0.3,26.9,0.8c2.2,0.2,2.4,2.1,2.2,3.4c-2.7,15.8-29.5,18.7-31.4-1.2
				C70.4,55.1,71.8,54.8,72.9,54.8z M27.6,56.8c-1.7,0.3-2.4,2-2,3.7c3.7,15.6,30.3,15.4,31.5-3c0-1.7-0.6-3.1-2.7-3.1
				C49.8,54.4,34.1,55.8,27.6,56.8z"/>
		</defs>
		<clipPath id="SVGID_00000085220233596697445750000011632254972251972495_">
			<use xlink:href="#SVGID_1_"  style="overflow:visible;"/>
		</clipPath>
		<g style="clip-path:url(#SVGID_00000085220233596697445750000011632254972251972495_);">
			<path style="fill:#422B0D;" d="M92.3,54.4c2.7,4.5-0.4,10.4-6.2,10.4s-8.9-5.4-5.3-10.8C83,50.6,89.8,50.2,92.3,54.4z M35.7,54.8
				c-2.9,4.9,0.9,10.1,5.6,10.1s8.2-6.2,5.3-10.4C44.3,51.2,37.8,51.2,35.7,54.8z"/>
		</g>
	</g>
	<g>
		<defs>
			<path id="SVGID_00000002378470936803287900000015685046093406688959_" d="M72.9,54.8c6.1-0.2,20.7,0.3,26.9,0.8
				c2.2,0.2,2.4,2.1,2.2,3.4c-2.7,15.8-29.5,18.7-31.4-1.2C70.4,55.1,71.8,54.8,72.9,54.8z M27.6,56.8c-1.7,0.3-2.4,2-2,3.7
				c3.7,15.6,30.3,15.4,31.5-3c0-1.7-0.6-3.1-2.7-3.1C49.8,54.4,34.1,55.8,27.6,56.8z"/>
		</defs>
		<clipPath id="SVGID_00000009573153617938949080000012364698636391462039_">
			<use xlink:href="#SVGID_00000002378470936803287900000015685046093406688959_"  style="overflow:visible;"/>
		</clipPath>
		<g style="clip-path:url(#SVGID_00000009573153617938949080000012364698636391462039_);">
			<path style="fill:#896024;" d="M41.5,56.1c0,1.3-1.1,2.4-2.5,2.4s-2.5-1.1-2.5-2.4s1.1-2.4,2.5-2.4S41.5,54.8,41.5,56.1z
				 M83.8,53.4c-1.4,0-2.5,1.1-2.5,2.5s1.1,2.5,2.5,2.5s2.5-1.1,2.5-2.5S85.2,53.4,83.8,53.4z"/>
		</g>
	</g>
</g>
<path style="fill:#422B0D;" d="M53.18,36.85c-1.48-0.76-11.79-3.34-23.46,0.55c-3.11,1.02-1.58,5.28,1.25,4.4
	c10.13-3.23,18.74-1.58,21.16-1.43S54.67,37.6,53.18,36.85z"/>
</svg>
